!!! OTL: Literature71
!!! Chapter: 5
!!! Section: II
!!! Page: 360
!!! Mode: 
!!! Encoder: ESM
**kern
*staff1
*I"Piano
=1-
*clefG2
*k[f#]
*G:
*M6/8
4.r
8r
8b\L
8cc\J
=2
8.dd\L
16ee\K
8dd\J
8.b/L
16a/K
8g/J
=3
[4.b\
8b\L]
8b\
8cc\J
=4
8dd\L
16ee\L
16dd\
16ee\
16dd\JJ
16cc/LL
16b/
16cc/
16b/
16a/
16g/JJ
=5
4.b\
8e/L
8e/
8g/J
=6
8.a/L
16b/K
8a/J
8g/L
8f#/
8g/J
=7
4.e/
4g/
8f#/
=8
!!linebreak:original
8e/L
8f#/
8g/J
8a/L
16bQ/LL
16aQ/JJ
8g/
8f#/J
=9
[4.g/
8g/]
4r
==
*-
